app/style/graphics/spriteSheets/characters/pacman/arrow_up.svg

<?xml version="1.0" encoding="UTF-8"?><svg id="Calque_1" xmlns="http://www.w3.org/2000/svg" viewBox="0 0 32 32"><defs><style>.cls-1{fill:#68ace5;}</style></defs><path class="cls-1" d="M13,5v1h5v-1h-1v-1h-1v-1h-1v1h-1v1h-1Z"/></svg>

<svg width="32" height="32" viewBox="0 0 32 32" fill="none" xmlns="http://www.w3.org/2000/svg">
<path d="M13 5V6H18V5H17V4H16V3H15V4H14V5H13Z" fill="#FFF295"/>
</svg>
